src/ex12_js_dom/images/add-list.svg

<svg width="24" height="24" fill="none" xmlns="http://www.w3.org/2000/svg"><path d="M12 1C5.9 1 1 5.9 1 12s4.9 11 11 11 11-4.9 11-11S18.1 1 12 1zm5 13h-3v3c0 1.1-.9 2-2 2s-2-.9-2-2v-3H7c-1.1 0-2-.9-2-2s.9-2 2-2h3V7c0-1.1.9-2 2-2s2 .9 2 2v3h3c1.1 0 2 .9 2 2s-.9 2-2 2z" fill="#000"/></svg>

<svg width="24" height="24" viewBox="0 0 24 24" fill="none" xmlns="http://www.w3.org/2000/svg">
<path d="M12 1C5.9 1 1 5.9 1 12C1 18.1 5.9 23 12 23C18.1 23 23 18.1 23 12C23 5.9 18.1 1 12 1ZM17 14H14V17C14 18.1 13.1 19 12 19C10.9 19 10 18.1 10 17V14H7C5.9 14 5 13.1 5 12C5 10.9 5.9 10 7 10H10V7C10 5.9 10.9 5 12 5C13.1 5 14 5.9 14 7V10H17C18.1 10 19 10.9 19 12C19 13.1 18.1 14 17 14Z" fill="black"/>
</svg>
